!!!COM: Palestrina, Giovanni Perluigi da
!!!OPR: Missa Quando lieta sperai
!!!OMD: Credo
!!!OTL: Et in Spiritum
**kern	**kern	**kern	**kern	**kern
*Ibass	*Ibarit	*Itenor	*Icalto	*Icant
!Bassus	!Baritone	!Tenor	!Altus	!Cantus
*clefF4	*clefF4	*clefGv2	*clefG2	*clefG2
*k[]	*k[]	*k[]	*k[]	*k[]
*A:aeo	*A:aeo	*A:aeo	*A:aeo	*A:aeo
*M4/2	*M4/2	*M4/2	*M4/2	*M4/2
=156	=156	=156	=156	=156
0r	0r	1.A	1r	0r
.	.	.	[1A	.
.	.	2A	.	.
=157	=157	=157	=157	=157
0r	0r	2.c	2A]	1.e
.	.	.	2A	.
.	.	4d	.	.
.	.	2e	2.c	.
.	.	[2c	.	2e
.	.	.	4d	.
=158	=158	=158	=158	=158
0r	0r	2c]	2e	2.g
.	.	4B	1g	.
.	.	4A	.	4a
.	.	2.G	.	2b
.	.	.	4f	[2dd
.	.	4A	4e	.
=159	=159	=159	=159	=159
0r	0r	2B	2d	2dd]
.	.	2c	2e	4cc
.	.	.	.	4b
.	.	2d	2f	2a
.	.	2d	2f	2b
=160	=160	=160	=160	=160
1r	2r	1A	1e	2cc
.	1A	.	.	2cc
1E	.	2.e	1r	1b
.	2G	.	.	.
.	.	4e	.	.
=161	=161	=161	=161	=161
1A	2.c	2e	0r	1r
.	.	2.f	.	.
.	4A	.	.	.
2G	2B	.	.	2r
.	.	4e	.	.
2A	2c	[2e	.	2e
=162	=162	=162	=162	=162
1F	1A	2e]	1r	1.a
.	.	2d	.	.
1E	1B	2e	2r	.
.	.	2B	2e	2g#
=163	=163	=163	=163	=163
0r	0r	1d	1f	2a
.	.	.	.	2.b
.	.	2c#	2e	.
.	.	.	.	4a
.	.	2d	2f	[2a
=164	=164	=164	=164	=164
1r	2r	1B	1d	2a]
.	1d	.	.	2g#
2r	.	2A	1e	1a
[2A	4c	[2e	.	.
.	4B	.	.	.
=165	=165	=165	=165	=165
2A]	2c	2e]	0r	0r
2G	2B	2e	.	.
2F	2A	2d	.	.
2E	2G	2e	.	.
=166	=166	=166	=166	=166
2.F	2.A	2.c	2r	0r
.	.	.	1f	.
4E	4G	4c	.	.
2D	2F	2d	.	.
2C	2c	2G	2e	.
=167	=167	=167	=167	=167
1F	4A	2r	2d	0r
.	4B	.	.	.
.	4c	2A	2c	.
.	4A	.	.	.
1D	2B	1f	2.d	.
.	2A	.	.	.
.	.	.	4c	.
=168	=168	=168	=168	=168
0E	2G#	1e	2B	0r
.	1A	.	2A	.
.	.	2r	1B	.
.	2G#	[2e	.	.
=169	=169	=169	=169	=169
2r	1A	4e]	2.c	2r
.	.	4d	.	.
1A	.	4c	.	1cc
.	.	4B	4d	.
.	1r	2A	1e	.
2G	.	2B	.	2b
=170	=170	=170	=170	=170
2A	0r	1c	1e	2a
2E	.	.	.	2g
1F	.	2c	1r	1a
.	.	2A	.	.
=171	=171	=171	=171	=171
2E	1r	2B	1r	2g
2D	.	2B	.	2f
1C	2r	1c	2r	1e
.	[2c	.	[2e	.
=172	=172	=172	=172	=172
0r	2c]	1r	2e]	2.g
.	2B	.	2d	.
.	.	.	.	4g
.	2A	2r	2c	2f
.	2G	[2d	2B	2g
=173	=173	=173	=173	=173
0r	1A	2d]	2A	2.e
.	.	2c	2.e	.
.	.	.	.	4f
.	2G	2B	.	2g
.	.	.	4d	.
.	2F	2A	2d	[2a
=174	=174	=174	=174	=174
1r	1E	1B	0e	2a]
.	.	.	.	2g#
2r	2r	1A	.	1a
2c	2e	.	.	.
=175	=175	=175	=175	=175
2c	2e	0r	2g	0r
2B	2d	.	2g	.
2A	2c	.	2f	.
2G	2B	.	[2e	.
=176	=176	=176	=176	=176
2.A	2.c	0r	2e]	0r
.	.	.	2c	.
4G	4B	.	.	.
2F	2A	.	2d	.
2E	2G	.	2e	.
=177	=177	=177	=177	=177
1F	2.c	0r	2A	2r
.	.	.	2a	2cc
.	4d	.	.	.
1E	1e	.	2a	2cc
.	.	.	2g	2b
=178	=178	=178	=178	=178
0r	0r	1r	2f	2a
.	.	.	2e	2g
.	.	2r	2.f	2.a
.	.	2f	.	.
.	.	.	4e	4g
=179	=179	=179	=179	=179
0r	0r	2f	2d	2f
.	.	2e	2c	2g
.	.	2d	2f	[1a
.	.	2c#	2e	.
=180	=180	=180	=180	=180
1r	2r	1d	1f	1a]
.	1d	.	.	.
2r	.	1A	1e	2r
[2A	2c	.	.	[2a
=181	=181	=181	=181	=181
2A]	1c	1.e	2r	2a]
2A	.	.	1a	2a
1E	[1B	.	.	2b
.	.	2e	2g#	2b
=182	=182	=182	=182	=182
1E	2B]	2e	2g#	1ee
.	1e	2B	2g#	.
1A	.	4c	1a	1cc
.	.	4d	.	.
.	[2c	4e	.	.
.	.	8d	.	.
.	.	8e	.	.
=183	=183	=183	=183	=183
1F	2c]	2f	2a	1a
.	1A	2.a	2.f	.
1D	.	.	.	2.dd
.	.	4g	4g	.
.	[2d	4f	2a	.
.	.	4e	.	4cc
=184	=184	=184	=184	=184
1.G	4d]	2d	2g	4b
.	4c	.	.	4a
.	4B	2d	2.g	1b
.	4A	.	.	.
.	2B	[1e	.	.
.	.	.	4f	.
2A	2c	.	[2e	[2a
=185	=185	=185	=185	=185
1E	1B	1e]	4e]	2a]
.	.	.	4d	.
.	.	.	2B	2g#
[1AA	[1A	2e	2c#	1a
.	.	2c#	2e	.
=186	=186	=186	=186	=186
1AA]	1A]	2c#	2e	2r
.	.	2c#	2e	2a
1r	1r	1d	1f#	2a
.	.	.	.	2a
=187	=187	=187	=187	=187
0r	0r	1G	1g	1b
.	.	1A	2e	2cc
.	.	.	[2a	2cc
=188	=188	=188	=188	=188
1E	2r	2.e	2a]	1.b
.	2B	.	4g#	.
.	.	4e	4f#	.
2E	2B	2e	2g#	.
2E	2B	2e	2g#	2b
=189	=189	=189	=189	=189
2.A	2.c#	2e	1a	0a
.	.	2e	.	.
4A	4c#	.	.	.
1D	1d	2.f#	1r	.
.	.	4f#	.	.
=190	=190	=190	=190	=190
1E	1B	1g	2r	0r
.	.	.	1e	.
2.A	2c	1e	.	.
.	2c	.	[2a	.
4A	.	.	.	.
=191	=191	=191	=191	=191
0E	1B	2.e	2a]	2r
.	.	.	2g#	2b
.	.	4e	.	.
.	2r	[1e	2.g#	2b
.	2e	.	.	2b
.	.	.	4g#	.
=192	=192	=192	=192	=192
2r	2A	1e]	1a	2.cc#
2A	1A	.	.	.
.	.	.	.	4cc#
2D	.	2r	1f	1dd
2D	[2B	2d	.	.
=193	=193	=193	=193	=193
2.E	4B]	4g	1.e	1b
.	4B	4f	.	.
.	2G	4e	.	.
4E	.	4d	.	.
2AA	1A	2c	.	2.cc
2A	.	2A	2e	.
.	.	.	.	4cc
=194	=194	=194	=194	=194
2A	2B	1E	0e	1b
2G#	2B	.	.	.
[1A	[1c#	1r	.	2r
.	.	.	.	2e
=195	=195	=195	=195	=195
1A]	1c#]	2r	2r	2.a
.	.	2A	2e	.
.	.	.	.	4a
1r	1r	2.d	2.f	1a
.	.	4c	4e	.
=196	=196	=196	=196	=196
0r	0r	2d	2f	1a
.	.	2f	2a	.
.	.	2e	2g	1b
.	.	[2d	[2f	.
=197	=197	=197	=197	=197
0r	0r	2d]	2f]	2.a
.	.	2c	2e	.
.	.	.	.	4cc
.	.	2.d	1f	4b
.	.	.	.	4a
.	.	.	.	[2a
.	.	4c	.	.
=198	=198	=198	=198	=198
1E	2r	1B	1e	2a]
.	2B	.	.	2g#
2A	2c	1A	2r	1a
[2A	[2c	.	2A	.
=199	=199	=199	=199	=199
2A]	2c]	0r	2e	0r
2G	2B	.	1e	.
2A	2c	.	.	.
2c	2A	.	2e	.
=200	=200	=200	=200	=200
2B	2d	0r	2g	0r
1A	2.c	.	2f	.
.	.	.	1e	.
.	8B	.	.	.
.	8A	.	.	.
2G	2B	.	.	.
=201	=201	=201	=201	=201
2.A	1c	1r	2f	2r
.	.	.	2.e	2e
4G	.	.	.	.
1F	1A	2r	.	2a
.	.	.	4d	.
.	.	2A	2d	[2a
=202	=202	=202	=202	=202
1E	2r	2e	2c	2a]
.	2E	1e	2B	2g
1r	1A	.	4c	2a
.	.	.	4d	.
.	.	2c	4e	2cc
.	.	.	4f	.
=203	=203	=203	=203	=203
0r	2G	2d	2g	2b
.	2F	2f	1c	1a
.	2G	2e	.	.
.	2G	[2d	2B	[2g
=204	=204	=204	=204	=204
0r	2A	2d]	1c	2g]
.	2A	1c	.	2f#
.	1G	.	1d	[1g
.	.	2B	.	.
=205	=205	=205	=205	=205
0C	1G	1c	1e	1g]
.	2r	1e	[1g	1cc
.	2G	.	.	.
=206	=206	=206	=206	=206
1G	1B	2d	1g]	1b
.	.	1e	.	.
1A	1c	.	2.e	1a
.	.	2A	.	.
.	.	.	4f	.
=207	=207	=207	=207	=207
0E	1B	2r	1g	1b
.	.	2.e	.	.
.	2.G	.	1g	2.b
.	.	4e	.	.
.	.	2e	.	.
.	4G	.	.	4b
=208	=208	=208	=208	=208
0r	2G	1d	0r	2b
.	2F	.	.	2a
.	2F	2c	.	2a
.	2C	2e	.	2g
=209	=209	=209	=209	=209
0r	4D	4d	2.a	4f
.	4A	4c#	.	4e
.	2D	2d	.	2f
.	.	.	4a	.
.	2A	2c#	2a	1e
.	[2c	[2e	2g	.
=210	=210	=210	=210	=210
0r	2c]	2e]	2g	2cc
.	2d	2d	2f	2a
.	1A	4c#	4e	1a
.	.	2d	4d	.
.	.	.	2e	.
.	.	4c#	.	.
=211	=211	=211	=211	=211
2r	1D	2.d	2d	0a
2D	.	.	2f	.
.	.	8c	.	.
.	.	8B	.	.
1D	2r	1A	1f	.
.	2A	.	.	.
=212	=212	=212	=212	=212
2C	1A	1c	2e	0r
2AA	.	.	2c	.
2.C	[1G	1c	2.e	.
4D	.	.	4f	.
=213	=213	=213	=213	=213
2.E	1G]	2B	2.g	0r
.	.	2G	.	.
4F	.	.	8f	.
.	.	.	8e	.
2.G	1r	2.B	2d	.
.	.	.	2e	.
8F	.	4c	.	.
8E	.	.	.	.
=214	=214	=214	=214	=214
2D	0r	2d	2f	1a
2E	.	4c	1e	.
.	.	4B	.	.
2F	.	1A	.	1a
2F	.	.	2d	.
=215	=215	=215	=215	=215
0E	1r	1B	1e	2g
.	.	.	.	2e
.	2r	2e	1r	2.g
.	2E	2e	.	.
.	.	.	.	4a
=216	=216	=216	=216	=216
0r	2.G	4d	2r	2.b
.	.	4c	.	.
.	.	4B	2g	.
.	4A	4A	.	4cc
.	2.B	1G	1g	2.dd
.	4c	.	.	8cc
.	.	.	.	8b
=217	=217	=217	=217	=217
2r	2d	0r	2f	2.a
2A	4c	.	2e	.
.	4B	.	.	4b
2A	2A	.	2e	2cc
2G#	2B	.	2e	[2b
=218	=218	=218	=218	=218
1A	1c	2r	2e	2b]
.	.	2e	2A	1a
1E	1B	1e	2B	.
.	.	.	2e	2g#
=219	=219	=219	=219	=219
1AA	1A	1c#	1e	1a
1D	1r	1d	1A	1f
=220	=220	=220	=220	=220
1D	1F	2r	1A	1f
.	.	1A	.	.
2AA	1A	.	2.c	2e
2AA	.	[2c	.	[2e
.	.	.	4d	.
=221	=221	=221	=221	=221
2.C	1G	4c]	2.e	2e]
.	.	4d	.	.
.	.	2.e	.	2.g
4D	.	.	4f	.
2.E	1G	.	2.g	.
.	.	4f	.	4a
.	.	[2g	.	[2b
4F	.	.	8f	.
.	.	.	8e	.
=222	=222	=222	=222	=222
2.G	2.B	4g]	2.d	4b]
.	.	8f	.	4cc
.	.	8e	.	.
.	.	2.d	.	2.dd
8F	4c	.	4e	.
8E	.	.	.	.
2.D	2.d	.	2.f	.
.	.	4e	.	8cc
.	.	.	.	8b
.	.	[2f	.	[2a
4E	8c	.	4g	.
.	8B	.	.	.
=223	=223	=223	=223	=223
2.F	1.A	2f]	1.a	4a]
.	.	.	.	4b
.	.	2f	.	1cc
4G	.	.	.	.
2A	.	2.e	.	.
2G#	2B	.	2e	2b
.	.	4d	.	.
=224	=224	=224	=224	=224
2A	2c	2c	2.e	2a
2A	2c	2A	.	2a
.	.	.	4e	.
1E	1B	4B	1e	2g
.	.	4G	.	.
.	.	[2g	.	2b
=225	=225	=225	=225	=225
1C	1e	4g]	1g	1cc
.	.	4f	.	.
.	.	2e	.	.
1D	4d	4f	1f	2a
.	4c	4e	.	.
.	4B	4d	.	[2b
.	4A	4c	.	.
=226	=226	=226	=226	=226
0E	2G	2B	1e	2b]
.	2c	2E	.	1a
.	1B	2r	2.e	.
.	.	[2e	.	2g#
.	.	.	4d	.
=227	=227	=227	=227	=227
0AA	2A	4e]	4c	[0a
.	.	4d	4B	.
.	2.e	2.c	4A	.
.	.	.	4B	.
.	.	.	4c	.
.	4d	4B	4d	.
.	4c	4A	2e	.
.	4B	4G	.	.
=228	=228	=228	=228	=228
1.D	4A	2F	1d	1a]
.	4G	.	.	.
.	4F	1f	.	.
.	4E	.	.	.
.	2D	.	2r	2.a
2C#	2E	2e	[2a	.
.	.	.	.	4g
=229	=229	=229	=229	=229
0D	0A	0d	4a]	4f
.	.	.	4g	4e
.	.	.	4f	2d
.	.	.	4e	.
.	.	.	1f	1a
=230	=230	=230	=230	=230
0AA	0A	0c#	0e	0a
==	==	==	==	==
*-	*-	*-	*-	*-
!!!CDT: 1525/^1526/-1594/2/2
!!!OCY: Italia
!!!AGN: Mass (Parody)
!!!AST: renaissance, vocal
!!!ASW: Madrigal 1548 (anon (Rore, Morales))
!!!PWK: Masses, Book 11
!!!RNB: Cadence finals: G,E
!!!YOR: Le Opere Complete, v. 28, p. 73
!!!YOO: Rome, Italy: Fratelli Scalera
!!!END: 1992//
!!!EED: John Miller
!!!YEC: Copyright 2000, John Miller
!!!YEN: United States of America
!!!YEM: Rights to all derivative electronic formats reserved.
!!!YEM: Refer to licensing agreement for further details.
!!!YEM: This file must be accompanied by the licensing agreement.
!!!YEM: A copy of the licensing agreement may be found at http://www.music-cog.ohio-state.edu/HumdrumDatabases/Palestrina/license.txt
!!!EMD: converted to Humdrum by Bret Aarden
